X:27
T:Polska ur Petter Dufvas notbok (Ma6-27)
R:Polska
O:Verkelbäck, Småland
B:Petter Dufvas notbok
S:Petter Dufva
N:Smus Ma6 bild 29
M:3/4
L:1/8
K:G
DG/F/ GBDB|BA/B/ c/B/A/G/ FE/D/|DG/F/ Gg Dc|BA/F/ G2 G,2:|
|:[G,DBg]2 A/B/c/A/ BA/G/|[G,DBg]2 A/B/c/A/ BA/G/ |DG/F/ Gg Dc|BA/F/ G2 G,2:|
|:dc B/c/d/e/ dg|gf/e/ dc B2|[G,DB]2 [G,DB]2 [G,DB]2|BA/B/ c/B/A/G/ FE/D/|
[G,DB]2 [G,DB]2 [G,DB]2|BA/B/ c/B/A/G/ FE/D/|DG/F/ Gg Dc|BA/F/ G2 G,2:|

